X:115
T:The Kid on the Mountain
M:9/8
K:Em
L:1/8
EDE FEF G2 F|EFE c2 A BAG|EDE FEF G2 A|BAG FAG FED :|
BGB AFA G2 D|GAB dge dBA|BGB AFA G2 A|BAG FAG FED :|
gfg eBe e2 f|gfg efg afd|gfg eBe  efg|bag fag fed |
gfg eBe e2 f|gfg edg afd|g2 g agf g2 a|bag fag fed ||
eBB e2 f g3|eBB efg afd|eBB e2 f g2 a|bag fag fed :|
edB dBA G2 D|GAB dge dBd|ege dBA G2 A|BAG FAG FED :|
